svg/u1f43f.svg

<svg viewBox="0 0 128 128" xmlns="http://www.w3.org/2000/svg">
  <path d="M32.11,27.88c0.81-1.96-1.62-8.94-4.01-9.22c-2.68-0.32-6.26,5.07-5.91,11.12 C22.42,33.87,31.26,29.92,32.11,27.88z" fill="#865B52"/>
  <path d="M33.02,74.55c0,0-1.55,2.82-4.22,4.36c-2.67,1.55-9.43,4.79-9.43,4.79l3.1,4.65l19.01-2.25 C41.47,86.1,37.67,69.91,33.02,74.55z" fill="#865B52"/>
  <path d="M44.71,44.99l6.34-10.56c0,0,1.83,8.73,2.96,11.12s3.52,7.04,5.77,7.74c2.25,0.7,7.18-1.27,15.2,2.82 s17.03,15.49,17.6,26.61s-1.97,13.37-0.7,15.06c1.27,1.69,8.31,0,9.85-6.19s-0.42-14.92-3.38-21.26c-2.96-6.34-6.9-12.67-3.52-22.24 s15.2-12.81,20.98-11.83c5.77,0.99,8.11,3.65,8.17,7.04c0.14,8.45-10.84,5.49-10.7,14.78c0.14,9.29,8.63,19.01,7.32,31.96 c-1.41,13.94-11.12,20.98-24.5,21.82c-12.64,0.8-24.5-2.82-24.5-2.82l-8.87-39.7L45.27,56.67L44.71,44.99z" fill="#865B52"/>
  <path d="M59.25,55.88c0,3.38,12.79,7.56,18.49,13.51c10.51,10.98,9.67,23.74,11.54,22.24 c0.43-0.34,2.87-13.2-7.6-25.43C73.9,57.1,59.25,55.33,59.25,55.88z" fill="#FEE5C1"/>
  <path d="M12.05,83.66c0,0-4.05,4.45-0.94,8.63c3.58,4.83,10.61,0.94,10.61,0.94L12.05,83.66z" fill="#C49166"/>
  <path d="M12.43,81.17c0,0-2.71,3.54,0.36,7.7c3.19,4.32,6.15,6.66,9.95,6.15c3.8-0.52,4.93-2.82,4.97-5.54 C27.77,86.75,12.43,81.17,12.43,81.17z" fill="#AD3421"/>
  <path d="M17.21,78.02c-2.07,0-4.46,0.99-5.3,3.75c-1.13,3.7,2.06,6.38,2.82,7.23s2.16,2.02,4.69,2.02 s6.66-4.74,6.66-4.74s-0.43-3.6-3.3-5.99C20.37,78.28,18.47,78.02,17.21,78.02z" fill="#D97755"/>
  <path d="M11.15,88.54c-0.23,1.17-0.09,2.06,0.61,2.21s0.56-0.94,0.7-1.64c0.14-0.7,0.28-1.7-0.23-1.83 C11.45,87.07,11.26,87.98,11.15,88.54z" fill="#865B52"/>
  <path d="M13.41,91.26c-0.09,1.08-0.19,1.83,0.52,1.88s0.59-1.04,0.62-1.62c0.04-0.73,0.11-1.55-0.15-1.71 C13.67,89.34,13.48,90.42,13.41,91.26z" fill="#865B52"/>
  <path d="M34.48,92.34c0,0-0.38,3.94,1.97,7.41c2.35,3.47,5.54,5.82,5.35,6.19s-4.04,0.84-9.01,1.22 s-7.04,0.19-8.54,1.69c-1.5,1.5-3.85,4.79-2.06,5.91s8.07,0.75,10.14,0.56s7.6-0.84,7.6-0.84s-2.91,3-1.31,4.32 c1.6,1.31,5.54,1.03,8.45,0.94c2.91-0.09,15.67-0.84,20.93-1.03s9.48,0.28,10.79-1.88c1.31-2.16-0.47-3.47-0.47-3.47 s6.85-3,6.76-15.39c-0.09-12.39-4.88-22.01-14.83-29.85c-7.45-5.87-15.2-7.7-19.33-14.17s-3.38-9.2-3.38-9.2s3.94-5.26,4.22-11.26 c0.28-6.01-0.49-12.74-4.22-13.51c-2.6-0.54-6.66,2.82-8.73,6.29c-2.06,3.47-7.13,10.89-7.13,10.89l-0.94,29.09l6.85,14.08 c0,0-0.56,1.69-1.41,2.06c-0.84,0.38-9.48,0-11.17,0.09c-1.69,0.09-5.95,1.47-6.16,4.32c-0.19,2.55-0.13,2.63,2.03,3.1 C23.03,90.37,34.48,92.34,34.48,92.34z" fill="#C49166"/>
  <path d="M19.2,85.8c0,0.48,1.41,0.38,2.63,0.05s2.86-0.56,2.82-1.31c-0.05-0.75-1.83-0.59-2.86-0.19 C20.47,84.86,19.2,85.1,19.2,85.8z" fill="#865B52"/>
  <path d="M23.5,87.27c0,0.86-1.37,0.68-2.3,0.89c-0.84,0.19-2.35,0.61-2.35-0.05c0-0.66,1.27-0.89,2.16-1.08 C21.9,86.85,23.5,86.38,23.5,87.27z" fill="#865B52"/>
  <path d="M38.51,92.71l8.94-3.1l7.6-11.26l5.28,4.08c0,0-3.66,3.73-4.08,7.25c-0.56,4.64,0.63,9.43,2.67,12.32 c2.04,2.89,5.35,7.67,5.35,7.67s-3.59,0.92-7.6,0.28c-3.57-0.56-10.17-3.91-13.55-8.06C40.94,99.22,39.43,97.15,38.51,92.71z" fill="#FDC397"/>
  <path d="M53.48,77.18l2.21,1.64c0,0-2.49,8.4-9.1,12.15c-4.59,2.6-9.18,2.67-17.93,1.36 c-7.23-1.08-8.95-2.44-9.47-2.86c-0.6-0.49,0.88,0.38,3.18,0.61c2.3,0.23,9.29,1.22,12.06,1.45s6.73-0.25,9.76-1.92 c2.63-1.45,4.88-3.99,7.04-7.56C52.23,80.41,53.48,77.18,53.48,77.18z" fill="#865B52"/>
  <path d="M24.72,109.75c-0.51-0.21-1.45,1.24-2.18,2.57c-0.54,1-1.04,2.11-0.48,2.45 c0.56,0.34,1.48-1.23,1.93-2.08C24.44,111.83,25.71,110.15,24.72,109.75z" fill="#865B52"/>
  <path d="M25.37,112.24c-0.68,1.02-1.76,2.84-1.16,3.22s1.65-1.26,2.25-2.15c0.6-0.88,1.83-2.53,1.16-2.87 C26.95,110.1,26.04,111.23,25.37,112.24z" fill="#865B52"/>
  <path d="M42.51,114.04c-0.9-0.27-2.18,1.16-2.71,2.18c-0.53,1.02-0.74,2.86-0.18,3.2 c0.81,0.49,0.99-1.72,1.79-2.82C42.02,115.8,43.67,114.39,42.51,114.04z" fill="#865B52"/>
  <path d="M42.53,116.8c-0.55,1.41-0.67,3.05,0.04,3.16c0.8,0.12,0.78-1.45,1.46-2.72s2.08-2.62,1.46-2.9 C44.77,114,43.36,114.69,42.53,116.8z" fill="#865B52"/>
  <path d="M39.92,58.96c3.52,2.02,4.72,4.54,4.72,4.54s-1.27,2.18-2.67,4.36c-1.41,2.18-2.69,8.31-3.1,10.07 c-0.92,3.91-2.7,4.6-2.7,4.6s-1.98-3.33-2.97-5.02c-0.88-1.5-2.36-5.14-2.99-5.35c-0.63-0.21-6.46,2.15-10.37,2.49 c-4.27,0.37-7.32-2.06-7.32-2.06l-3.14-4.15l2.25-4.65l5.56-3.73l13.94-4.15C31.12,55.9,35.45,56.39,39.92,58.96z" fill="#FDC397"/>
  <path d="M34.85,46.89l1.06-1.69c0,0-1.71-5.22-0.53-10.24c1.23-5.21,3.06-7.95,3.06-7.95 s-8.24-3.27-19.64,4.82S8.24,50.97,7.96,54c-0.28,3.03-0.41,4.73-1.48,5.63c-2.01,1.69-2.5,3.24-2.22,4.5 c0.28,1.27,4.82,0.35,4.82,0.35l2.53-0.7l12.67-7.53L34.85,46.89z" fill="#9F7157"/>
  <path d="M45.6,27.3c-0.65-0.11-3.85,2.83-4.74,6.34c-1.08,4.27-0.44,7.15,1.69,7.6 c2.21,0.47,3.98-3.09,4.5-5.68C47.57,33.02,47.01,27.53,45.6,27.3z" fill="#FFD2B2"/>
  <path d="M7.31,62.82c-1.74,0.21-3.33,0.56-3.05,1.88c0.28,1.31,1.88,2.63,2.35,3.1 c0.47,0.47,2.77,0.63,2.77,0.63s2.87-3.88,2.85-4.75C12.19,62.37,10.36,62.44,7.31,62.82z" fill="#F69C9C"/>
  <path d="M35.91,45.2c-0.13-0.79-11.16-1.41-15.32,3.54c-3.71,4.41-2.73,7.67-3.86,9.44 c-1.99,3.12-3.79,4.68-3.65,4.87c0.16,0.22,2.21-0.54,4.46-1.17c1.87-0.53,4.33-0.17,6.69-0.14c2.71,0.04,7.37-0.51,9.96-5.06 C37.17,51.4,36.17,46.82,35.91,45.2z" fill="#FFEAC6"/>
  <path d="M23.73,52.17c-1.21,1.08-1.59,3.01-1.13,4.46c0.39,1.22,1.94,2.83,4.41,2.49 c3.43-0.47,4.41-4.18,2.82-6.57C28.99,51.28,26.36,49.82,23.73,52.17z" fill="#100D0F"/>
  <path d="M8.35,67.58c0,0,2.48-5,3.88-3.68c0.9,0.84-1.56,4.53-1.56,4.53s1.67,2.73,3.74,2.91 c2.08,0.18,4.35-1.61,4.99-2.06c0.63-0.46,1.62-1.37,2.46-1.06s1.15,1.25-0.06,2.44c-1.13,1.1-4.96,3.73-8.39,2.77 c-2.85-0.8-4.86-3.41-5.77-4.12c-0.92-0.7-4.27-3.1-3.24-4.19C5.09,64.4,8.35,67.58,8.35,67.58z" fill="#494949"/>
</svg>

<svg viewBox="0 0 128 128" xmlns="http://www.w3.org/2000/svg">
  <defs/>
  <path d="M32.11,27.88 C32.92,25.92 30.49,18.94 28.1,18.66 C25.42,18.34 21.84,23.73 22.19,29.78 C22.42,33.87 31.26,29.92 32.11,27.88 Z" fill="#865B52"/>
  <path d="M33.02,74.55 C33.02,74.55 31.47,77.37 28.8,78.91 C26.13,80.46 19.37,83.7 19.37,83.7 L22.47,88.35 L41.48,86.1 C41.47,86.1 37.67,69.91 33.02,74.55 Z" fill="#865B52"/>
  <path d="M44.71,44.99 L51.05,34.43 C51.05,34.43 52.88,43.16 54.01,45.55 C55.14,47.94 57.53,52.59 59.78,53.29 C62.03,53.99 66.96,52.02 74.98,56.11 C83,60.2 92.01,71.6 92.58,82.72 C93.15,93.84 90.61,96.09 91.88,97.78 C93.15,99.47 100.19,97.78 101.73,91.59 C103.27,85.4 101.31,76.67 98.35,70.33 C95.39,63.99 91.45,57.66 94.83,48.09 C98.21,38.52 110.03,35.28 115.81,36.26 C121.58,37.25 123.92,39.91 123.98,43.3 C124.12,51.75 113.14,48.79 113.28,58.08 C113.42,67.37 121.91,77.09 120.6,90.04 C119.19,103.98 109.48,111.02 96.1,111.86 C83.46,112.66 71.6,109.04 71.6,109.04 L62.73,69.34 L45.27,56.67 L44.71,44.99 Z" fill="#865B52"/>
  <path d="M59.25,55.88 C59.25,59.26 72.04,63.44 77.74,69.39 C88.25,80.37 87.41,93.13 89.28,91.63 C89.71,91.29 92.15,78.43 81.68,66.2 C73.9,57.1 59.25,55.33 59.25,55.88 Z" fill="#FEE5C1"/>
  <path d="M12.05,83.66 C12.05,83.66 8,88.11 11.11,92.29 C14.69,97.12 21.72,93.23 21.72,93.23 L12.05,83.66 Z" fill="#C49166"/>
  <path d="M12.43,81.17 C12.43,81.17 9.72,84.71 12.79,88.87 C15.98,93.19 18.94,95.53 22.74,95.02 C26.54,94.5 27.67,92.2 27.71,89.48 C27.77,86.75 12.43,81.17 12.43,81.17 Z" fill="#AD3421"/>
  <path d="M17.21,78.02 C15.14,78.02 12.75,79.01 11.91,81.77 C10.78,85.47 13.97,88.15 14.73,89 C15.49,89.85 16.89,91.02 19.42,91.02 C21.95,91.02 26.08,86.28 26.08,86.28 C26.08,86.28 25.65,82.68 22.78,80.29 C20.37,78.28 18.47,78.02 17.21,78.02 Z" fill="#D97755"/>
  <path d="M11.15,88.54 C10.92,89.71 11.06,90.6 11.76,90.75 C12.46,90.9 12.32,89.81 12.46,89.11 C12.6,88.41 12.74,87.41 12.23,87.28 C11.45,87.07 11.26,87.98 11.15,88.54 Z" fill="#865B52"/>
  <path d="M13.41,91.26 C13.32,92.34 13.22,93.09 13.93,93.14 C14.64,93.19 14.52,92.1 14.55,91.52 C14.59,90.79 14.66,89.97 14.4,89.81 C13.67,89.34 13.48,90.42 13.41,91.26 Z" fill="#865B52"/>
  <path d="M34.48,92.34 C34.48,92.34 34.1,96.28 36.45,99.75 C38.8,103.22 41.99,105.57 41.8,105.94 C41.61,106.31 37.76,106.78 32.79,107.16 C27.82,107.54 25.75,107.35 24.25,108.85 C22.75,110.35 20.4,113.64 22.19,114.76 C23.98,115.88 30.26,115.51 32.33,115.32 C34.4,115.13 39.93,114.48 39.93,114.48 C39.93,114.48 37.02,117.48 38.62,118.8 C40.22,120.11 44.16,119.83 47.07,119.74 C49.98,119.65 62.74,118.9 68,118.71 C73.26,118.52 77.48,118.99 78.79,116.83 C80.1,114.67 78.32,113.36 78.32,113.36 C78.32,113.36 85.17,110.36 85.08,97.97 C84.99,85.58 80.2,75.96 70.25,68.12 C62.8,62.25 55.05,60.42 50.92,53.95 C46.79,47.48 47.54,44.75 47.54,44.75 C47.54,44.75 51.48,39.49 51.76,33.49 C52.04,27.48 51.27,20.75 47.54,19.98 C44.94,19.44 40.88,22.8 38.81,26.27 C36.75,29.74 31.68,37.16 31.68,37.16 L30.74,66.25 L37.59,80.33 C37.59,80.33 37.03,82.02 36.18,82.39 C35.34,82.77 26.7,82.39 25.01,82.48 C23.32,82.57 19.06,83.95 18.85,86.8 C18.66,89.35 18.72,89.43 20.88,89.9 C23.03,90.37 34.48,92.34 34.48,92.34 Z" fill="#C49166"/>
  <path d="M19.2,85.8 C19.2,86.28 20.61,86.18 21.83,85.85 C23.05,85.52 24.69,85.29 24.65,84.54 C24.6,83.79 22.82,83.95 21.79,84.35 C20.47,84.86 19.2,85.1 19.2,85.8 Z" fill="#865B52"/>
  <path d="M23.5,87.27 C23.5,88.13 22.13,87.95 21.2,88.16 C20.36,88.35 18.85,88.77 18.85,88.11 C18.85,87.45 20.12,87.22 21.01,87.03 C21.9,86.85 23.5,86.38 23.5,87.27 Z" fill="#865B52"/>
  <path d="M38.51,92.71 L47.45,89.61 L55.05,78.35 L60.33,82.43 C60.33,82.43 56.67,86.16 56.25,89.68 C55.69,94.32 56.88,99.11 58.92,102 C60.96,104.89 64.27,109.67 64.27,109.67 C64.27,109.67 60.68,110.59 56.67,109.95 C53.1,109.39 46.5,106.04 43.12,101.89 C40.94,99.22 39.43,97.15 38.51,92.71 Z" fill="#FDC397"/>
  <path d="M53.48,77.18 L55.69,78.82 C55.69,78.82 53.2,87.22 46.59,90.97 C42,93.57 37.41,93.64 28.66,92.33 C21.43,91.25 19.71,89.89 19.19,89.47 C18.59,88.98 20.07,89.85 22.37,90.08 C24.67,90.31 31.66,91.3 34.43,91.53 C37.2,91.76 41.16,91.28 44.19,89.61 C46.82,88.16 49.07,85.62 51.23,82.05 C52.23,80.41 53.48,77.18 53.48,77.18 Z" fill="#865B52"/>
  <path d="M24.72,109.75 C24.21,109.54 23.27,110.99 22.54,112.32 C22,113.32 21.5,114.43 22.06,114.77 C22.62,115.11 23.54,113.54 23.99,112.69 C24.44,111.83 25.71,110.15 24.72,109.75 Z" fill="#865B52"/>
  <path d="M25.37,112.24 C24.69,113.26 23.61,115.08 24.21,115.46 C24.81,115.84 25.86,114.2 26.46,113.31 C27.06,112.43 28.29,110.78 27.62,110.44 C26.95,110.1 26.04,111.23 25.37,112.24 Z" fill="#865B52"/>
  <path d="M42.51,114.04 C41.61,113.77 40.33,115.2 39.8,116.22 C39.27,117.24 39.06,119.08 39.62,119.42 C40.43,119.91 40.61,117.7 41.41,116.6 C42.02,115.8 43.67,114.39 42.51,114.04 Z" fill="#865B52"/>
  <path d="M42.53,116.8 C41.98,118.21 41.86,119.85 42.57,119.96 C43.37,120.08 43.35,118.51 44.03,117.24 C44.71,115.97 46.11,114.62 45.49,114.34 C44.77,114 43.36,114.69 42.53,116.8 Z" fill="#865B52"/>
  <path d="M39.92,58.96 C43.44,60.98 44.64,63.5 44.64,63.5 C44.64,63.5 43.37,65.68 41.97,67.86 C40.56,70.04 39.28,76.17 38.87,77.93 C37.95,81.84 36.17,82.53 36.17,82.53 C36.17,82.53 34.19,79.2 33.2,77.51 C32.32,76.01 30.84,72.37 30.21,72.16 C29.58,71.95 23.75,74.31 19.84,74.65 C15.57,75.02 12.52,72.59 12.52,72.59 L9.38,68.44 L11.63,63.79 L17.19,60.06 L31.13,55.91 C31.12,55.9 35.45,56.39 39.92,58.96 Z" fill="#FDC397"/>
  <path d="M34.85,46.89 L35.91,45.2 C35.91,45.2 34.2,39.98 35.38,34.96 C36.61,29.75 38.44,27.01 38.44,27.01 C38.44,27.01 30.2,23.74 18.8,31.83 C7.4,39.92 8.24,50.97 7.96,54 C7.68,57.03 7.55,58.73 6.48,59.63 C4.47,61.32 3.98,62.87 4.26,64.13 C4.54,65.4 9.08,64.48 9.08,64.48 L11.61,63.78 L24.28,56.25 L34.85,46.89 Z" fill="#9F7157"/>
  <path d="M45.6,27.3 C44.95,27.19 41.75,30.13 40.86,33.64 C39.78,37.91 40.42,40.79 42.55,41.24 C44.76,41.71 46.53,38.15 47.05,35.56 C47.57,33.02 47.01,27.53 45.6,27.3 Z" fill="#FFD2B2"/>
  <path d="M7.31,62.82 C5.57,63.03 3.98,63.38 4.26,64.7 C4.54,66.01 6.14,67.33 6.61,67.8 C7.08,68.27 9.38,68.43 9.38,68.43 C9.38,68.43 12.25,64.55 12.23,63.68 C12.19,62.37 10.36,62.44 7.31,62.82 Z" fill="#F69C9C"/>
  <path d="M35.91,45.2 C35.78,44.41 24.75,43.79 20.59,48.74 C16.88,53.15 17.86,56.41 16.73,58.18 C14.74,61.3 12.94,62.86 13.08,63.05 C13.24,63.27 15.29,62.51 17.54,61.88 C19.41,61.35 21.87,61.71 24.23,61.74 C26.94,61.78 31.6,61.23 34.19,56.68 C37.17,51.4 36.17,46.82 35.91,45.2 Z" fill="#FFEAC6"/>
  <path d="M23.73,52.17 C22.52,53.25 22.14,55.18 22.6,56.63 C22.99,57.85 24.54,59.46 27.01,59.12 C30.44,58.65 31.42,54.94 29.83,52.55 C28.99,51.28 26.36,49.82 23.73,52.17 Z" fill="#100D0F"/>
  <path d="M8.35,67.58 C8.35,67.58 10.83,62.58 12.23,63.9 C13.13,64.74 10.67,68.43 10.67,68.43 C10.67,68.43 12.34,71.16 14.41,71.34 C16.49,71.52 18.76,69.73 19.4,69.28 C20.03,68.82 21.02,67.91 21.86,68.22 C22.7,68.53 23.01,69.47 21.8,70.66 C20.67,71.76 16.84,74.39 13.41,73.43 C10.56,72.63 8.55,70.02 7.64,69.31 C6.72,68.61 3.37,66.21 4.4,65.12 C5.09,64.4 8.35,67.58 8.35,67.58 Z" fill="#494949"/>
</svg>
